symbols/web/settings_input_component/materialsymbolsrounded/settings_input_component_wght200fill1_20px.svg

<svg xmlns="http://www.w3.org/2000/svg" height="20" width="20"><path d="M3.354 18.75q-.187 0-.323-.135-.135-.136-.135-.323v-2.959q-.708-.166-1.177-.708-.469-.542-.469-1.333v-2.021h4.208v2.021q0 .791-.458 1.333-.458.542-1.188.708v2.979q0 .167-.145.303-.146.135-.313.135Zm6.646 0q-.188 0-.323-.135-.135-.136-.135-.323v-2.959q-.709-.166-1.177-.708-.469-.542-.469-1.333v-2.021h4.208v2.021q0 .791-.469 1.333-.468.542-1.177.708v2.979q0 .167-.146.303-.145.135-.312.135Zm6.646 0q-.188 0-.323-.135-.135-.136-.135-.323v-2.959q-.709-.166-1.178-.708-.468-.542-.468-1.333v-2.021h4.208v2.021q0 .791-.469 1.333-.469.542-1.177.708v2.979q0 .167-.146.303-.146.135-.312.135ZM1.25 10.354V6.125q0-.271.219-.49.219-.218.489-.218h.938V1.708q0-.208.135-.333.136-.125.323-.125.208 0 .334.125.124.125.124.333v3.709h.938q.271 0 .49.218.218.219.218.49v4.229Zm6.646 0V6.125q0-.271.219-.49.218-.218.489-.218h.938V1.708q0-.208.135-.333.135-.125.323-.125.208 0 .333.125.125.125.125.333v3.709h.938q.271 0 .489.218.219.219.219.49v4.229Zm6.646 0V6.125q0-.271.218-.49.219-.218.49-.218h.938V1.708q0-.208.135-.333.135-.125.323-.125.208 0 .333.125.125.125.125.333v3.709h.938q.27 0 .489.218.219.219.219.49v4.229Z"/></svg>

<svg xmlns="http://www.w3.org/2000/svg" height="20" width="20"><path d="M3.354 18.75Q3.167 18.75 3.031 18.615Q2.896 18.479 2.896 18.292V15.333Q2.188 15.167 1.719 14.625Q1.25 14.083 1.25 13.292V11.271H5.458V13.292Q5.458 14.083 5 14.625Q4.542 15.167 3.812 15.333V18.312Q3.812 18.479 3.667 18.615Q3.521 18.75 3.354 18.75ZM10 18.75Q9.812 18.75 9.677 18.615Q9.542 18.479 9.542 18.292V15.333Q8.833 15.167 8.365 14.625Q7.896 14.083 7.896 13.292V11.271H12.104V13.292Q12.104 14.083 11.635 14.625Q11.167 15.167 10.458 15.333V18.312Q10.458 18.479 10.312 18.615Q10.167 18.75 10 18.75ZM16.646 18.75Q16.458 18.75 16.323 18.615Q16.188 18.479 16.188 18.292V15.333Q15.479 15.167 15.01 14.625Q14.542 14.083 14.542 13.292V11.271H18.75V13.292Q18.75 14.083 18.281 14.625Q17.812 15.167 17.104 15.333V18.312Q17.104 18.479 16.958 18.615Q16.812 18.75 16.646 18.75ZM1.25 10.354V6.125Q1.25 5.854 1.469 5.635Q1.688 5.417 1.958 5.417H2.896V1.708Q2.896 1.5 3.031 1.375Q3.167 1.25 3.354 1.25Q3.562 1.25 3.688 1.375Q3.812 1.5 3.812 1.708V5.417H4.75Q5.021 5.417 5.24 5.635Q5.458 5.854 5.458 6.125V10.354ZM7.896 10.354V6.125Q7.896 5.854 8.115 5.635Q8.333 5.417 8.604 5.417H9.542V1.708Q9.542 1.5 9.677 1.375Q9.812 1.25 10 1.25Q10.208 1.25 10.333 1.375Q10.458 1.5 10.458 1.708V5.417H11.396Q11.667 5.417 11.885 5.635Q12.104 5.854 12.104 6.125V10.354ZM14.542 10.354V6.125Q14.542 5.854 14.76 5.635Q14.979 5.417 15.25 5.417H16.188V1.708Q16.188 1.5 16.323 1.375Q16.458 1.25 16.646 1.25Q16.854 1.25 16.979 1.375Q17.104 1.5 17.104 1.708V5.417H18.042Q18.312 5.417 18.531 5.635Q18.75 5.854 18.75 6.125V10.354Z"/></svg>
